icons/lymph_nodes_fill.svg

<svg width="48" height="48" viewBox="0 0 48 48" fill="none" xmlns="http://www.w3.org/2000/svg">
<path d="M11.3162 6.05134C10.7923 5.8767 10.226 6.15986 10.0513 6.6838C9.87667 7.20774 10.1598 7.77406 10.6838 7.94871C11.1185 8.09363 11.8342 8.42295 12.5717 8.92399C11.7738 9.3913 10.0154 10 7 10C6.44772 10 6 10.4477 6 11C6 11.5523 6.44772 12 7 12C10.7075 12 13.0328 11.1499 14.1174 10.2867C14.3105 10.5143 14.488 10.757 14.6425 11.0145C14.6916 11.0963 14.7505 11.1686 14.8169 11.2307C14.5247 12.1885 14.813 13.3933 15.6548 14.3301C16.3602 15.1152 17.294 15.5338 18.1568 15.538C18.1971 15.6012 18.2452 15.6607 18.3009 15.715C18.3052 15.7203 18.3124 15.7295 18.3221 15.743C18.3587 15.7936 18.4328 15.9081 18.5199 16.1092C18.6944 16.5118 18.9241 17.2689 19.0018 18.5601C19.0027 18.5755 19.004 18.5907 19.0056 18.6059C18.3035 19.1902 17.9921 20.1087 18.0669 21.0987C18.0622 21.1009 18.0575 21.1032 18.0528 21.1056C18.0147 21.1246 17.8804 21.1697 17.6032 21.1971C17.3436 21.2227 17.0274 21.2269 16.6761 21.2133C16.103 21.1911 15.4915 21.1243 14.9744 21.0559C14.8896 19.7248 13.6045 18.5337 11.8848 18.2858C11.4738 18.2266 11.0714 18.226 10.6908 18.2766C10.6393 18.2274 10.5818 18.1832 10.5188 18.1451C10.4998 18.1276 10.4406 18.0679 10.3682 17.9414C10.223 17.6873 10 17.1174 10 16C10 15.4477 9.55228 15 9 15C8.44772 15 8 15.4477 8 16C8 17.3827 8.27697 18.3128 8.63176 18.9337C8.67448 19.0084 8.71799 19.0781 8.7618 19.1429C8.5847 19.3097 8.43385 19.496 8.31452 19.6988C7.68556 19.5914 6.88974 19.5 6 19.5C5.44772 19.5 5 19.9477 5 20.5C5 21.0523 5.44772 21.5 6 21.5C6.85771 21.5 7.61841 21.6003 8.18521 21.7075C8.60267 22.7166 9.70899 23.5337 11.0995 23.7341C12.3005 23.9072 13.428 23.5792 14.1547 22.9387C14.2194 22.9625 14.2876 22.9798 14.3586 22.99C14.9521 23.0748 15.7925 23.1806 16.5989 23.2118C17.0018 23.2274 17.4168 23.2252 17.7999 23.1874C18.0777 23.1599 18.3867 23.1096 18.6779 23.0076C18.8061 23.2288 18.954 23.4451 19.1217 23.6534C20.3991 25.2404 22.3755 25.8087 23.7267 25.0457C24.2097 25.3909 24.8782 25.8021 25.6408 26.1567C26.1641 26.4001 26.7558 26.6283 27.3806 26.7858C27.1584 27.1863 26.9921 27.5991 26.8797 28.011C25.7393 28.0691 24.7347 28.3512 23.9193 28.718C23.3835 28.959 22.8974 29.2518 22.5001 29.565C21.6922 29.0908 20.5631 28.9651 19.4351 29.3097C18.1368 29.7063 17.1854 30.6203 16.8848 31.6232C16.1212 31.6617 15.1878 31.6206 14.2187 31.5294C13.4997 31.4618 12.7908 31.3696 12.1631 31.2742C12.0389 30.7087 11.7804 30.1263 11.3879 29.5876C11.0045 29.0612 10.5421 28.6438 10.0544 28.3529C10.0803 28.1807 10.1168 27.9944 10.1667 27.8059C10.2971 27.3133 10.4875 26.9267 10.7071 26.7071C11.0976 26.3166 11.0976 25.6834 10.7071 25.2929C10.3166 24.9024 9.68342 24.9024 9.29289 25.2929C8.71248 25.8733 8.40288 26.6535 8.23329 27.2941C8.17823 27.5022 8.13464 27.7082 8.10078 27.9057C8.03324 27.917 7.9667 27.9316 7.90133 27.9495C7.62743 27.4377 7.233 26.8188 6.70711 26.2929C6.31658 25.9024 5.68342 25.9024 5.29289 26.2929C4.90237 26.6834 4.90237 27.3166 5.29289 27.7071C5.68594 28.1002 6.0041 28.6193 6.23057 29.0722C6.34098 29.2931 6.42357 29.4859 6.47777 29.6214C6.48195 29.6319 6.48595 29.6419 6.48978 29.6517C6.35584 30.5364 6.63268 31.6111 7.31834 32.5523C8.45652 34.1147 10.2902 34.7176 11.414 33.8989C11.6448 33.7308 11.8277 33.5157 11.9628 33.2666C12.6005 33.3619 13.3103 33.4528 14.0313 33.5206C15.093 33.6206 16.2424 33.6775 17.2367 33.6048C17.3977 33.8113 17.5962 33.9913 17.824 34.1415C17.3754 34.9353 16.6827 35.6204 16.0072 36.1512C15.8617 36.2655 15.7198 36.3705 15.5852 36.4656C15.2175 36.2919 14.8107 36.1609 14.3761 36.0844C12.3681 35.7308 10.5238 36.673 10.2569 38.189C9.98992 39.7049 11.4013 41.2205 13.4094 41.5741C15.4174 41.9277 17.2616 40.9854 17.5286 39.4695C17.6309 38.8882 17.4865 38.3069 17.1563 37.7912C17.185 37.7691 17.2138 37.7466 17.2428 37.7238C18.1125 37.0405 19.1777 36.0103 19.8001 34.6688C20.1941 34.6617 20.6034 34.5986 21.0126 34.4736C22.7145 33.9537 23.8204 32.5447 23.6454 31.2117C23.8725 31.0185 24.2329 30.7699 24.7397 30.542C25.2965 30.2915 25.9807 30.09 26.7609 30.0235C26.905 30.87 27.3098 31.6008 27.9524 32.0652C27.9324 32.1509 27.9103 32.2507 27.8875 32.3621C27.8112 32.7349 27.7245 33.252 27.6895 33.8126C27.6549 34.3649 27.667 35.01 27.8189 35.6176C27.9125 35.9919 28.0695 36.39 28.3298 36.7428C27.6911 38.1161 28.6092 39.9482 30.4158 40.8709C32.2537 41.8095 34.3152 41.4514 35.0202 40.0709C35.1088 39.8975 35.1717 39.7162 35.2104 39.5298C35.5615 39.5278 36.0083 39.5059 36.5145 39.437L36.5307 39.4348C36.8187 39.7003 37.2093 40.029 37.6527 40.3487C38.2263 40.7622 38.9458 41.2027 39.6838 41.4487C40.2077 41.6234 40.774 41.3402 40.9487 40.8163C41.1233 40.2923 40.8402 39.726 40.3162 39.5513C39.8812 39.4063 39.3854 39.1234 38.9103 38.789C39.5229 38.5294 40.1468 38.1806 40.7418 37.713C41.1761 37.3717 41.2514 36.743 40.9101 36.3088C40.5689 35.8746 39.9402 35.7992 39.506 36.1405C38.4477 36.9723 37.2304 37.3211 36.2447 37.4553C35.7558 37.5218 35.3372 37.5336 35.0446 37.5291C34.9442 37.5276 34.8593 37.5241 34.7922 37.5203C34.3989 36.8713 33.7716 36.2817 32.9689 35.8718C31.9178 35.335 30.7936 35.2223 29.8918 35.4824C29.8439 35.3991 29.7976 35.2861 29.7592 35.1325C29.6767 34.8026 29.6576 34.3852 29.6856 33.9374C29.713 33.498 29.7825 33.0777 29.8469 32.7629C29.8626 32.6865 29.8777 32.6172 29.8916 32.5562C31.1684 32.4194 32.4891 31.5096 33.2926 30.0665C34.3102 28.2389 34.1639 26.1568 33.0402 25.0452C33.1599 23.6933 33.524 22.9127 33.8218 22.4833C33.848 22.4455 33.8739 22.4101 33.8994 22.3769C34.7741 22.8645 35.9641 23.0108 37.1715 22.6915C39.2392 22.1447 40.5876 20.4363 40.2245 18.8482C40.6803 18.4961 41.2012 18.0496 41.6904 17.5488C42.4198 16.802 43.2032 15.8102 43.4701 14.7426C43.6041 14.2068 43.2783 13.6638 42.7425 13.5299C42.2067 13.3959 41.6638 13.7217 41.5299 14.2575C41.475 14.477 41.3634 14.7208 41.2042 14.9796C41.0874 14.6952 41 14.3593 41 14C41 13.4477 40.5523 13 40 13C39.4477 13 39 13.4477 39 14C39 15.0717 39.4031 15.982 39.8035 16.5917C39.535 16.837 39.2674 17.0594 39.0237 17.2485C38.1397 16.7045 36.8944 16.5284 35.6301 16.8627C34.414 17.1843 33.4468 17.9077 32.9302 18.772C32.1954 18.6743 31.5358 18.4323 31.0038 18.1708C30.7205 18.0315 30.4802 17.89 30.2926 17.7691C30.3393 17.1199 30.2086 16.392 29.8861 15.6848C29.9303 15.6623 29.9769 15.6384 30.0258 15.6128C30.3959 15.4193 30.9008 15.1333 31.4415 14.7616C32.2601 14.1988 33.2469 13.3816 33.9318 12.3236C34.7165 12.6683 35.73 12.7411 36.7563 12.4583C38.6924 11.9249 39.9411 10.3283 39.5454 8.89225C39.1497 7.45617 37.2595 6.72442 35.3235 7.25783C33.4177 7.78291 32.1779 9.33819 32.517 10.7565C32.4211 10.9685 32.3002 11.175 32.1598 11.3749C31.6919 12.0407 31.0074 12.633 30.3085 13.1135C29.8492 13.4292 29.4166 13.6745 29.0992 13.8404C28.9412 13.923 28.8133 13.9851 28.727 14.0257C28.7046 14.0362 28.6851 14.0452 28.6685 14.0528C28.6645 14.0494 28.6604 14.046 28.6564 14.0426C28.4019 13.83 28.1325 13.6587 27.8584 13.5339C27.8325 13.4035 27.8043 13.2654 27.7759 13.1265L27.7301 12.9014C27.6726 12.6178 27.6223 12.359 27.5835 12.1392C28.3968 11.7162 29.0502 10.8621 29.2749 9.78699C29.6385 8.04782 28.7423 6.38903 27.2733 6.08197C25.8043 5.77492 24.3187 6.93587 23.9552 8.67504C23.6242 10.2586 24.3376 11.7756 25.5769 12.2661C25.6318 12.6146 25.7068 12.987 25.7699 13.2987L25.8189 13.5392C25.8216 13.5523 25.8242 13.5652 25.8268 13.5781C24.7272 14.2772 24.51 16.0974 25.3601 17.7475C26.2453 19.4658 27.9528 20.3489 29.1737 19.7199C29.2564 19.6773 29.3348 19.6289 29.4087 19.575C29.6138 19.6996 29.8528 19.8335 30.1215 19.9656C30.7692 20.2841 31.6126 20.6031 32.586 20.7435C32.5892 20.7568 32.5926 20.77 32.5961 20.7833C32.599 20.7943 32.602 20.8053 32.6051 20.8162C32.4646 20.9645 32.3201 21.139 32.1782 21.3437C31.7193 22.0057 31.311 22.9465 31.118 24.2695C30.397 24.2699 29.6459 24.5281 28.9686 24.9999C28.1809 24.9929 27.3031 24.7242 26.4842 24.3433C25.8578 24.052 25.3125 23.7169 24.931 23.4479C25.232 22.321 24.9103 20.9092 23.9747 19.7469C23.146 18.7174 22.0233 18.1166 20.9679 18.0298C20.8575 16.7755 20.6118 15.9065 20.3551 15.314C20.233 15.0323 20.1091 14.8146 19.9973 14.6491C20.7262 13.6463 20.5385 12.0575 19.4868 10.887C18.5696 9.86625 17.2662 9.46496 16.2349 9.78864C14.8384 7.6257 12.3996 6.41246 11.3162 6.05134Z" fill="black"/>
</svg>

<svg
  xmlns="http://www.w3.org/2000/svg"
  width="24"
  height="24"
  viewBox="0 0 24 24"
  fill="none"
  stroke="currentColor"
  stroke-width="2"
  stroke-linecap="round"
  stroke-linejoin="round"
>
  <path d="M11.316 6.051a1 1 0 0 0-.632 1.898c.434.145 1.15.474 1.888.975C11.774 9.391 10.015 10 7 10a1 1 0 1 0 0 2c3.707 0 6.033-.85 7.117-1.713.193.227.371.47.525.727a1 1 0 0 0 .175.217c-.292.957-.004 2.162.838 3.1.705.784 1.639 1.203 2.502 1.207q.06.095.144.177l.021.028c.037.05.11.165.198.366.174.403.404 1.16.482 2.451q0 .023.004.046c-.703.584-1.014 1.503-.94 2.493l-.013.007c-.038.019-.173.064-.45.091-.26.026-.576.03-.927.016a19 19 0 0 1-1.702-.157c-.084-1.331-1.37-2.522-3.09-2.77a4.4 4.4 0 0 0-1.193-.01 1 1 0 0 0-.172-.13.9.9 0 0 1-.15-.205C10.222 17.687 10 17.117 10 16a1 1 0 1 0-2 0c0 1.383.277 2.313.632 2.934q.063.111.13.209a2.5 2.5 0 0 0-.447.556A14 14 0 0 0 6 19.5a1 1 0 1 0 0 2c.858 0 1.618.1 2.185.207.418 1.01 1.524 1.827 2.915 2.027 1.2.173 2.328-.155 3.055-.795q.097.034.204.051c.593.085 1.434.19 2.24.222a9 9 0 0 0 1.2-.025 3.8 3.8 0 0 0 .879-.18q.192.334.444.646c1.277 1.587 3.253 2.156 4.605 1.393.483.345 1.151.756 1.914 1.11a10 10 0 0 0 1.74.63 5.5 5.5 0 0 0-.501 1.225 8.3 8.3 0 0 0-2.96.707 7 7 0 0 0-1.42.847c-.808-.474-1.937-.6-3.065-.255-1.298.396-2.25 1.31-2.55 2.313-.764.039-1.697-.002-2.666-.094a37 37 0 0 1-2.056-.255 4.55 4.55 0 0 0-.775-1.686 4.6 4.6 0 0 0-1.334-1.235c.026-.172.063-.359.113-.547.13-.493.32-.88.54-1.099a1 1 0 0 0-1.414-1.414c-.58.58-.89 1.36-1.06 2.001a7 7 0 0 0-.132.612 2 2 0 0 0-.2.044c-.274-.512-.668-1.131-1.194-1.657a1 1 0 0 0-1.414 1.414c.393.393.711.912.938 1.365.11.221.193.414.247.55l.012.03c-.134.884.143 1.96.828 2.9 1.139 1.563 2.972 2.166 4.096 1.347.23-.168.414-.383.549-.632.638.095 1.347.186 2.068.254 1.062.1 2.211.157 3.206.084.16.206.36.386.587.537-.449.793-1.141 1.478-1.817 2.01q-.218.17-.422.314a4.8 4.8 0 0 0-1.209-.382c-2.008-.353-3.852.589-4.12 2.105-.266 1.516 1.145 3.032 3.153 3.385 2.008.354 3.853-.589 4.12-2.105.102-.58-.043-1.162-.373-1.678l.087-.067c.87-.683 1.935-1.714 2.557-3.055a4.4 4.4 0 0 0 1.213-.195c1.701-.52 2.807-1.93 2.632-3.262a4.6 4.6 0 0 1 1.095-.67 6.2 6.2 0 0 1 2.02-.519c.145.847.55 1.578 1.192 2.042a11 11 0 0 0-.263 1.748c-.034.552-.022 1.197.13 1.805.094.374.25.772.51 1.125-.638 1.373.28 3.205 2.087 4.128 1.838.938 3.9.58 4.604-.8q.133-.26.19-.541a10 10 0 0 0 1.304-.093l.017-.002c.288.265.678.594 1.122.914.573.413 1.293.854 2.03 1.1a1 1 0 1 0 .633-1.898c-.435-.145-.93-.428-1.406-.762a8 8 0 0 0 1.832-1.076 1 1 0 1 0-1.236-1.572c-1.058.831-2.276 1.18-3.261 1.314a8 8 0 0 1-1.453.065c-.393-.649-1.02-1.238-1.823-1.648-1.051-.537-2.175-.65-3.077-.39a1.4 1.4 0 0 1-.133-.35c-.082-.33-.101-.747-.073-1.195a9 9 0 0 1 .206-1.38c1.276-.138 2.597-1.047 3.4-2.49 1.018-1.828.872-3.91-.252-5.022.12-1.352.484-2.132.782-2.562q.04-.057.077-.106c.875.488 2.065.634 3.273.315 2.067-.547 3.416-2.256 3.053-3.844.455-.352.976-.798 1.465-1.3.73-.746 1.513-1.738 1.78-2.805a1 1 0 1 0-1.94-.486 2.7 2.7 0 0 1-.326.723A2.6 2.6 0 0 1 41 14a1 1 0 1 0-2 0c0 1.072.403 1.982.803 2.592-.268.245-.536.467-.78.657-.883-.544-2.129-.72-3.393-.386-1.216.321-2.183 1.045-2.7 1.909a6.3 6.3 0 0 1-1.926-.601 7 7 0 0 1-.711-.402c.046-.65-.084-1.377-.407-2.084a14 14 0 0 0 1.556-.923c.818-.563 1.805-1.38 2.49-2.438.785.344 1.798.417 2.824.134 1.936-.533 3.185-2.13 2.79-3.566-.396-1.436-2.286-2.168-4.222-1.634-1.906.525-3.146 2.08-2.807 3.499a4 4 0 0 1-.357.618c-.468.666-1.153 1.258-1.851 1.739a12 12 0 0 1-1.64.939l-.013-.01a3.5 3.5 0 0 0-.798-.51l-.082-.406-.046-.226a32 32 0 0 1-.146-.762c.813-.423 1.466-1.277 1.69-2.352.364-1.74-.532-3.398-2-3.705-1.47-.307-2.955.854-3.319 2.593-.33 1.584.383 3.1 1.622 3.591.055.349.13.721.193 1.033l.049.24.008.04c-1.1.698-1.317 2.518-.467 4.168.885 1.719 2.593 2.602 3.814 1.973q.123-.064.235-.145c.205.125.444.259.713.39a8.3 8.3 0 0 0 2.464.779l.02.072q-.213.222-.428.528c-.459.662-.867 1.602-1.06 2.925-.721 0-1.472.26-2.15.73-.787-.006-1.665-.275-2.484-.656a10.3 10.3 0 0 1-1.553-.895c.301-1.127-.02-2.539-.956-3.701-.829-1.03-1.952-1.63-3.007-1.717-.11-1.255-.356-2.124-.613-2.716a4 4 0 0 0-.358-.665c.73-1.003.541-2.591-.51-3.762-.917-1.02-2.22-1.422-3.252-1.098-1.397-2.163-3.835-3.377-4.919-3.738" />
</svg>
